X:1
T:James Gibb editions
T:Musica est Dei donum - Lasso
T:#
%%score [ 1 2 3 4 ]
L:1/8
Q:1/4=96
M:4/4
K:E
V:1 treble nm="Soprano" snm="S"
V:2 treble nm="Alto" snm="A"
V:3 treble-8 nm="Tenor" snm="T"
V:4 bass nm="Bass" snm="B"
V:1
"^Musica est Dei donum optimi""^Orlando di Lasso\n(1532-94)" B3 A G2 A2 | F4 E2 E2- | %2
w: Mu- si- ca est|De- i do\-|
 E2 B,2 C2 A,2 | B,4 B3 A |[M:4/4] G2 F3 E (E2- | E2 D2) E2 e2- | e2 d2 (c4 | B4) G4 | B3 A G2 A2 | %9
w: * num o- pti-|mi, mu- si-|ca De- i do\-|* * num, De\-|* i do\-|* num,|mu- si- ca est|
 F4 E2 E2- | E2 B,2 C2 A,2 | B,4 B3 A | G2 F3 E (E2- | E2 D2) E2 e2- | e2 d2 (c4 | B4) G4 | %16
w: De- i do\-|* num o- pti-|mi, mu- si-|ca De- i do\-|* * num, De\-|* i do\-|* num,|
 B3 A G2 A2 | F4 E2 E2- | E2 B,2 C2 A,2 | B,4 B3 A | G2 F3 E (E2- | E2 D2) E2[Q:1/4=94] e2- | %22
w: mu- si- ca est|De- i do\-|* num o- pti-|mi, mu- si-|ca De- i do\-|* * num, De\-|
[Q:1/4=92] e2[Q:1/4=90] d2[Q:1/4=87] (c4 |[Q:1/4=83] B4)[Q:1/4=82] [GB]4 |] %24
w: * i do\-|* num.|
V:2
 z8 | z8 | B3 A G2 A2 | F4 E2 E2- |[M:4/4] E2 B,2 C2 A,2 | B,4 B3 A | G2 F3 E (E2- | %7
w: ||Mu- si- ca est|De- i do\-|* num o- pti-|mi, mu- si-|ca De- i do\-|
 E2 D2) E2 e2- | e2 d2 (c4 | B4) G4 | B3 A G2 A2 | F4 E2 E2- | E2 B,2 C2 A,2 | B,4 B3 A | %14
w: * * num, De\-|* i do\-|* num,|mu- si- ca est|De- i do\-|* num o- pti-|mi, mu- si-|
 G2 F3 E (E2- | E2 D2) E2 e2- | e2 d2 (c4 | B4) G4 | B3 A G2 A2 | F4 E2 E2- | E2 B,2 C2 A,2 | %21
w: ca De- i do\-|* * num, De\-|* i do\-|* num,|mu- si- ca est|De- i do\-|* num o- pti-|
 B,4 B3 A | G2 F3 E (E2- | E2 D2) E4 |] %24
w: mi, mu- si-|ca De- i do\-|* * num.|
V:3
 z8 | z8 | z8 | z8 |[M:4/4][K:treble-8] B3 A G2 A2 | F4 E2 E2- | E2 B,2 C2 A,2 | B,4 B3 A | %8
w: ||||Mu- si- ca est|De- i do\-|* num o- pti-|mi, mu- si-|
 G2 F3 E (E2- | E2 D2) E2 e2- | e2 d2 (c4 | B4) G4 | B3 A G2 A2 | F4 E2 E2- | E2 B,2 C2 A,2 | %15
w: ca De- i do\-|* * num, De\-|* i do\-|* num,|mu- si- ca est|De- i do\-|* num o- pti-|
 B,4 B3 A | G2 F3 E (E2- | E2 D2) E2 e2- | e2 d2 (c4 | B4) G4 | B3 A G2 A2 | F4 E2 E2- | %22
w: mi, mu- si-|ca De- i do\-|* * num, De\-|* i do\-|* num,|mu- si- ca est|De- i do\-|
 E2 B,2 (C2 A,2) | B,4 E4 |] %24
w: * num o\- *|pti- mi.|
V:4
 z8 | z8 | z8 | z8 |[M:4/4] z8 | z8 | B,3 A, G,2 A,2 | F,4 E,2 E,2- | E,2 B,,2 C,2 A,,2 | %9
w: ||||||Mu- si- ca est|De- i do\-|* num o- pti-|
 B,,4 B,3 A, | G,2 F,3 E, (E,2- | E,2 D,2) E,2 E2- | E2 D2 (C4 | B,4) G,4 | B,3 A, G,2 A,2 | %15
w: mi, mu- si-|ca De- i do\-|* * num, De\-|* i do\-|* num,|mu- si- ca est|
 F,4 E,2 E,2- | E,2 B,,2 C,2 A,,2 | B,,4 B,3 A, | G,2 F,3 E, (E,2- | E,2 D,2) E,2 E2- | E2 D2 (C4 | %21
w: De- i do\-|* num o- pti-|mi, mu- si-|ca De- i do\-|* * num, De\-|* i do\-|
 B,4) G,4 | B,3 A, G,2 A,2 | F,4 E,4 |] %24
w: * num,|mu- si- ca est|Do- num.|

